icons/core/logout.svg

<svg width="32" height="32" viewBox="0 0 32 32" fill="none" xmlns="http://www.w3.org/2000/svg">
<path fill-rule="evenodd" clip-rule="evenodd" d="M20 4C20 2.89543 19.1046 2 18 2H6C4.89543 2 4 2.89543 4 4V28C4 29.1046 4.89543 30 6 30H18C19.1046 30 20 29.1046 20 28V25H18V28H6V4H18V7H20V4ZM24.5858 17.0003L20.7926 20.7935L22.2068 22.2077L27.7071 16.7074L28.4142 16.0003L27.7071 15.2932L22.2068 9.79298L20.7926 11.2072L24.5858 15.0003L9.99975 15.0003L9.99975 17.0003L24.5858 17.0003Z" fill="black"/>
</svg>

<svg width="32" height="32" viewBox="0 0 32 32" xmlns="http://www.w3.org/2000/svg">
    <path fill-rule="evenodd" d="M20 4a2 2 0 00-2-2H6a2 2 0 00-2 2v24a2 2 0 002 2h12a2 2 0 002-2v-3h-2v3H6V4h12v3h2V4zm4.586 13l-3.793 3.794 1.414 1.414 5.5-5.5.707-.708-.707-.707-5.5-5.5-1.414 1.414L24.586 15H10v2h14.586z"/>
</svg>
